X:711
T:Traditional Polka
T:Angus Polka No.1
T:Cameron Men's Polka No.1
D:Jim Cameron Band
Z:Nigel Gatherer
M:2/4
L:1/16
K:D
FG | A2f2 B2g2 | A2f2 f2ef | gfed cdef | edcB A2 
FG | A2f2 B2g2 | A2f2 f2ef | gfed cABc | d2d2 d2  :|
z2 | F3 G A2FD | G2B2 B4   | A2cB AGFE | DFAB A2D2 |
     F3 G A2FD | G2B2 B4   | A2cB AGFE | D2d2 d2  :|
<end>
<start>
